X:1
T:Title
%%score 1 2 3 4
L:1/8
M:12/8
K:G
V:1 treble nm="Flöte" snm="Fl."
V:2 treble transpose=-2 nm="Klarinette in B" snm="B Kl."
V:3 treble transpose=-14 nm="Bassklarinette" snm="B.kl."
V:4 bass transpose=-12 nm="Kontrabass" snm="Kb."
V:1
 (b2 c')"^Pastorale aus dem \"Weihnachtskonzert\"" (d'2 b) (e'2 d') (e'd'c') | %1
 (d'2 c') (d'2 b) (c'd'b) (a2 d') | (b2 c') (d'2 b) (f2 g) (a2 f) | %3
 (b2 a)"^Arcangelo Corelli" (bag) (a2 g) (a2 f) | (gaf) e2 a (f2 g) (a2 f) | g6 g6 | g6 g3 f3 | %7
 g3 z2"^Soli" b (c'ba) d'2 d | g2 G z2 c' (agf b2) B | e2 E z2 a (fed) g2 g | %10
 g3 z2"^Tutti" f (B^cd) (Adc) | d3 z2 A (B2 A) (BAG) | A2 F z2 d (e2 d) (edc) | %13
 d2 B z2 d (g2 d) (f2 B) |"^15" (e2 A) (d2 g) c'3 b3 | a3 z2 d' c'6 | b3 _b3 a6 | a6 a6 | %18
 a3 z2 d' (c'd'b) a3 | g2 d g3 z2 e a3 | z2 f b3 z2 g c'3 | z2 b (a2 d') z2 g (f2 b) | %22
 z2 e (d2 g) c3 z2 a | (fed) d2 f g3 e'3 | z3 d'3 z6 |!f! c'2 b a3 g3 z2 b | b3 b3 b3 z2!p! c' | %27
 b3 c'3 b3 z2!f! d' | ^c'3 d'3 c'3 z2 f | (f2 e) e2 e' (e'2 d') z2 d' | %30
 (d'2 c') (c'2"^Tutti" b) _b2 f =b3- | b3 _b3 =b2 f b3- | b2 f b3- b2 f b3- | b2 B e3- e2 f d2 ^c | %34
 d3 ^c3 B6 | (b2 c') (d'2 b) (e'2 d') (e'd'c') | (d'2 c') (d'2 b) (c'd'b) a2 d' | %37
 (b2 c') (d'2 b) (f2 g) (a2 f) | (b2 a) (bag) (a2 g) (a2 f) | (gaf) e2 a (f2 g) (a2 f) | g6 g6 | %41
 g6 g3 f3 | g3 z2"^Soli" b (c'ba) d'2 d | g2 G z2 c' (agf) b2 B | e2 E z2 (a fed) g2 g | %45
 g3 z2"^Tutti" f (B^cd) (Adc) | d12- | d12- | d6- dcB c3- | cBA B3- B2 e a3- | a2 d g6!f! f3 | %51
 g6 g6 | g6 g6 | g6 g6 |!p! f3 g3 g3 z2 f | g3 z3!pp! a3 z3 | b3 z3 z6 |] %57
V:2
"^2. Stimme" (a2 b) (^c'2 a) (d'2 c') (d'c'b) | (^c'2 b) (c'2 a) (f^ga) (eag) | %2
 (a2 b) (^c'2 a) (e2 f) (^g2 e) | (a2 ^g) (agf) (g2 f) (g2 e) | (^c^de) (Bed) (e2 f) (^g2 e) | %5
 (^c2 d) (e2 c) (f2 e) (fed) | (e2 d) (e2 ^c) (fef) B2 e | ^c3 z2"^Soli" a b3 z2 e' | %8
 ^c'2 ^c z2 f ^g3 z2 c' | a2 A z2 d e3 z2 f | B3 z2"^Tutti" b (ab^g) f3 | e3 z2 ^G (A2 G) (AGF) | %12
 ^G2 E z2 ^c (d2 c) (dcB) | ^c2 A z2 e (e2 d) z2 c | (^c2 B) z2 e f2 ^g a3 | %15
 ^g3 z2"^Soli" ^c' c'3 b3- | b3 a6 a3- | a3 a6 a3 | ^g3 z2"^Tutti" ^c' (fga) a2 g | %19
 e3 z2 e f3 z2 f | ^g3 z2 g a3 z2 b | e3 z2 e (a2 d) z2 ^c | (f2 B) z2 A ^G3 z2 e' | %23
 (d'e'^c') b2 e' c'3 a3 | z2 z!p! a3 z6 |!f! ^g2 a e2 g a3 z2 a | ^g3 a3 g3 z2!p! f | %27
 f3 f3 f3 z2!f! ^g | ^g3 g3 g3 z2"^Soli" c | ^c3 ^d3 ^g3 z2 g | a3 z2"^Tutti" a ^g3 g2 a | %31
 e3 ^d3 ^c3 ^c'2 ^g | ^c'3- c'2 ^g c'3- c'2 g | a3 z2 a c'3 ^c'3- | c'3 =c'3 ^c'6 | %35
 (a2 b) (^c'2 a) (d'2 c') (d'c'b) | (^c'2 b) (c'2 a) (f^g(a) eag) | %37
 (a2 b) (^c'2 a) (e2 f) (^g2 e) | (a2 ^g) (agf) (g2 f) (g2 e) | (^c^de) (Bed) (e2 f) (^g2 e) | %40
 (^c2 d) (e2 c) (f2 e) (fed) | (e2 d) e2 ^c (fef) B2 e | ^c3 z2"^Soli" a b3 z2 e' | %43
 ^c'2 ^c z2 f ^g3 z2 c' | a2 A z2 d e3 z2 f | B3 z2"^Tutti" (b ab)^g f3 | e3 z2 ^c (B2 A) (B2 ^G) | %47
 (^c2 d) (e2 c) (B2 A) (B2 ^G) | (^c2 d) (e2 c)!p! A3 z2 B | e3 z2!pp! e f3 z2 f | %50
 e3 z2 e (de^c) B2 e | ^c3 z2!f! e (f2 e) (f2 d) | (e2 d) (e2 ^c) (f2 e) (fed) | %53
 (e2 d) (e2 ^c) (f2 e) (d2 c) |!p! B3 ^c3 B3 z2 e | ^c3 z3!pp! ^G3 z3 | A3 z3 z6 |] %57
V:3
"^3. Stimme" a6 a6 | a6 d3 e3 | a3 z3 e6 | e6 e6 | A3 B3 e3 z3 | A6 A6 | A6 D3 E3 | %7
 A3 z3"^Soli" z3 z3 | z12 | z12 | z3 z2"^Tutti" E E2 ^G B2 B | ^G3 z2 E E3 E3 | E3 z2 A A3 A3 | %13
 A3 z2 A A3 z2 E | F3 z2 ^c d3 e3 | e3 z3"^Soli" z3 z3 | z12 | z12 | z3 z2"^Tutti" A B2 ^c f2 e | %19
 e3 z2 A A3 z2 B | B3 z2 ^c c3 z2 e | e2 a ^g3 f3 e3 | d3 ^c3 B3 z2 A | A2 ^c e2 e e3 d3 | %24
 z3!p! A3 z6 |!f! B2 ^c e2 e c3 z2 f | ^c3 z2 F c3 z2!p! B | f3 z2 B f3 z2!f! ^c | %28
 ^g3 z2 ^c g3"^Soli" z3 | z12 | z3 z2 A ^d3 ^c3 | ^g3 g3 g3 z3 | z3 z3 z3 z z ^c | %33
 ^c3 z2 c ^d3 z2 ^g | ^g3 g3 a6 | a6 a6 | a6 d3 e3 | a3 z3 e6 |"^47" e6 e6 | A3 B3 e3 z3 | A6 A6 | %41
 A6 D3 E3 | A3 z3"^Soli" z6 | z12 | z12 | z3 z2"^Tutti" E E2 ^G B2 B |"^52" ^G3 z2 A e3 E3 | %47
 E3 z2 A e3 E3 | e3 z2!p! e A3 z2 E | e3 z2!pp! ^c d3 z2 d | e3 z2 ^c f2 e e3 | e3 z2!f! A A3 A3 | %52
 A3 z2 A A3 A3 | A3 z2 ^c d3 z2!p! d | e3 e3 e3 z2 e | e3 z3!pp! e3 z3 | a3 z3 z6 |] %57
V:4
"^4. Stimme" G6 G6 | G6 C3 D3 | G3 z3 D6 | D6 D6 | G,3 A,3 D3 z3 | %5
 (G,2 A,) (B,2 G,) (C2 B,) (CB,A,) | (B,2 A,) (B,2 G,) (CB,C D2) D, | G,3"^Soli" G6 F3- | %8
 F3 E6 D3- | D3 C6 B,2 E, | (^CB,A, D2)"^Tutti" F, G,2 D, A,2 A, | D,3 D,3 D,6 | D,3 G,3 G,6 | %13
 G,2 A, B,2 B, E3 D3 | C3 B,3 A,3 G,3 | D3 z2"^Soli" G, E,3 F,3 | G,6 ^C,6 | D,6 ^C,6 | %18
 D,3 z2"^Tutti" B, A,2 G, C,2 D, | G,2 A, B,2 G, C,3 z2 ^C, | D,3 z2 ^D, E,3 z2 F, | %21
 G,2 G F3 E3 D3 | C3 B,3 A,3 z2 G, | C2 G, D2 D, G,3 C3 | z3!p! B,3 z6 |!f! A,2 G, D2 D, G,3 z2 E | %26
 ^D2 B, E,2 E D2 B, z2!p! A | ^G2 E A,2 A G2 E z2!f! B | _B2 F B,2 =B _B2 F z2"^Soli" F | %29
 ^G3 _B3 =B3 D3 | E3 E2"^Tutti" E E3 D2 E | F2 E F2 F B3 A3 | G3 F3 E3 D2 D | E3 z2 E F3 B,3 | %34
 F3 F,3 B,6 | G6 G6 | G6 C3 D3 | G3 z3 D6 | D6 D6 | G,3 A,3 D3 z3 | %40
 (G,2 A,) (B,2 G,) (C2 B,) (CB,A,) | (B,2 A,) (B,2 G,) (CB,C D2) D, | G,3"^Soli" G6 F3- | %43
 F3 E6 D3- | D3 C6 B,2 E | (^CB,A, D2)"^Tutti" F, G,2 D, A,2 A, | D,3 z2 G, (F,2 E,) (F,2 D,) | %47
 (G,2 A,) (B,2 G,) (F,2 E,) (F,2 D,) | (G,2 A,) (B,2 G,)!p! E,3 z2 F, | G,3 z2 G,!pp! C,3 z2 C | %50
 B,3 z2 G, C,2 G, D,2 D, | G,3 z2!f! B, (C2 B,) (C2 A,) | (B,2 A,) (B,2 G,) (C2 B,) (CB,A,) | %53
 (B,2 A,) (B,2 G,) (C2 B,) (A,2 G,) |!p! D3 G,3 D3 z2 D, | G,3 z3!pp! D,3 z3 | G,3 x3 z6 |] %57

